svgs/duotone/train-track.svg

<svg xmlns="http://www.w3.org/2000/svg" viewBox="0 0 576 512"><!--! Font Awesome Pro 6.1.1 by @fontawesome - https://fontawesome.com License - https://fontawesome.com/license (Commercial License) Copyright 2022 Fonticons, Inc. --><defs><style>.fa-secondary{opacity:.4}</style></defs><path class="fa-primary" d="M202.1 33.64C218.9 39.23 227.9 57.35 222.4 74.12L94.36 458.1C88.77 474.9 70.65 483.9 53.88 478.4C37.11 472.8 28.05 454.6 33.64 437.9L161.6 53.88C167.2 37.12 185.4 28.05 202.1 33.64V33.64zM373.9 33.64C390.6 28.05 408.8 37.12 414.4 53.88L542.4 437.9C547.9 454.6 538.9 472.8 522.1 478.4C505.4 483.9 487.2 474.9 481.6 458.1L353.6 74.12C348.1 57.35 357.1 39.23 373.9 33.64V33.64z"/><path class="fa-secondary" d="M126.3 160H112C94.33 160 80 145.7 80 128C80 110.3 94.33 96 112 96H147.6L126.3 160zM83.6 288H72C54.33 288 40 273.7 40 256C40 238.3 54.33 224 72 224H104.9L83.6 288zM151.1 288L172.4 224H403.6L424.9 288H151.1zM40.94 416H32C14.33 416 0 401.7 0 384C0 366.3 14.33 352 32 352H62.27L40.94 416zM108.4 416L129.7 352H446.3L467.6 416H108.4zM513.7 352H544C561.7 352 576 366.3 576 384C576 401.7 561.7 416 544 416H535.1L513.7 352zM471.1 224H504C521.7 224 536 238.3 536 256C536 273.7 521.7 288 504 288H492.4L471.1 224zM428.4 96H464C481.7 96 496 110.3 496 128C496 145.7 481.7 160 464 160H449.7L428.4 96zM382.3 160H193.7L215.1 96H360.9L382.3 160z"/></svg>

<svg xmlns="http://www.w3.org/2000/svg" viewBox="0 0 576 512"><!--! Font Awesome Pro 6.4.2 by @fontawesome - https://fontawesome.com License - https://fontawesome.com/license (Commercial License) Copyright 2023 Fonticons, Inc. --><path class="fa-primary" style="fill:var(--fa-primary-color,inherit);opacity:var(--fa-primary-opacity,1);" d="M202.1 33.6c16.8 5.6 25.8 23.7 20.2 40.5l-128 384c-5.6 16.8-23.7 25.8-40.5 20.2s-25.8-23.7-20.2-40.5l128-384c5.6-16.8 23.7-25.8 40.5-20.2zm171.8 0c16.8-5.6 34.9 3.5 40.5 20.2l128 384c5.6 16.8-3.5 34.9-20.2 40.5s-34.9-3.5-40.5-20.2l-128-384c-5.6-16.8 3.5-34.9 20.2-40.5z"/><path class="fa-secondary" style="fill:var(--fa-secondary-color,inherit);opacity:var(--fa-secondary-opacity,.4);" d="M147.6 96l-21.3 64H112c-17.7 0-32-14.3-32-32s14.3-32 32-32h35.6zM104.9 224L83.6 288H72c-17.7 0-32-14.3-32-32s14.3-32 32-32h32.9zm46.1 64l21.3-64H403.6l21.3 64H151.1zM62.3 352L40.9 416H32c-17.7 0-32-14.3-32-32s14.3-32 32-32H62.3zm46.1 64l21.3-64H446.3l21.3 64H108.4zm426.7 0l-21.3-64H544c17.7 0 32 14.3 32 32s-14.3 32-32 32h-8.9zM492.4 288l-21.3-64H504c17.7 0 32 14.3 32 32s-14.3 32-32 32H492.4zM449.7 160L428.4 96H464c17.7 0 32 14.3 32 32s-14.3 32-32 32H449.7zM360.9 96l21.3 64H193.7l21.3-64H360.9z"/></svg>
